X:15
T:The Miller's Daughter
C:
S: The Gow Collection
M:C
L:1/8
C: From the Gow collections
Z: Jason R. Fruit <JasonFruit@gmail.com>
R: Slow strathspey
K:D
"^Slow"A, |  B,<DD>B, E>DE>F | A,<A,B,<A, D2 D>A, | B,<DD>B, E>DEF | A,<A,B,>A, D2-D :|
|: B| D<D!trill!F>D A>FE>B | D<D!trill!F>D A>D!trill!F>D | GB/G/ Fd/F/ !trill!E>DE<F | A,<A,!trill!B,>A, D2-D:|
|: f | d<dd>B !trill!e>de<f | A<A!trill!B>A d2 d>f | d<dd>B !trill!e>de<f | A<A!trill!B>A !turn!d3 :|
|: (!p!f/g/| a>)fdf !trill!e>def | (a/g/).f/.e/ d>A !trill!d>ef>d | ga/g/ (f/a/).g/.f/ !trill!e>de<f | A<A!trill!B>A d2-d :|
|: !f!f | D<D!trill!F>D [EC]2 [EC]>f | D<DF>A !turn!A>B!turn!d>e | f>de>B d>F!fermata![EC]>F | A,<A,!trill!B,>A, D2-D :|

